X: 311
P: Longways for &c.
M: 6/8
L: 1/8
K: F
V: 1
|:\
|:\
cdc cAF | FAc fed | cBA GAF | EFG ECc |\
V: 2 clef=bass middle=d
|:\
f3 F3 | c3 B3 | A3 F3 | f3- f2A |\
|:\
f3 g3 | c'2b a2g | f2B c3 | F3- F3 :|

